_inc/systems/logos/auto-wheel.svg

<?xml version="1.0" encoding="utf-8"?>
<svg viewBox="0 0 200 40" xmlns="http://www.w3.org/2000/svg">
  <path d="M 52.938 29.944 C 51.408 29.757 49.926 29.21 48.647 28.367 C 46.665 27.057 45.221 25.142 44.545 22.917 C 44.383 22.399 44.226 21.615 44.167 21.088 C 44.115 20.598 44.115 19.403 44.167 18.915 C 44.592 14.954 47.413 11.569 51.263 10.413 C 51.783 10.252 52.573 10.096 53.104 10.038 C 53.595 9.987 54.799 9.987 55.29 10.038 C 57.62 10.284 59.779 11.335 61.44 13.03 C 62.577 14.2 63.383 15.55 63.852 17.085 C 64.143 18.035 64.267 18.915 64.267 20.002 C 64.267 20.817 64.229 21.266 64.087 21.975 C 63.374 25.569 60.677 28.523 57.132 29.589 C 56.613 29.749 55.822 29.906 55.29 29.964 C 54.776 30.02 53.447 30.007 52.938 29.944 Z M 52.624 25.58 C 52.624 23.432 52.617 23.369 52.361 22.877 C 52.165 22.501 51.68 22.021 51.301 21.826 C 50.795 21.565 50.783 21.565 48.6 21.565 L 46.641 21.565 L 46.668 21.713 C 46.716 21.981 47.026 22.869 47.203 23.244 C 47.59 24.06 48.081 24.753 48.746 25.417 C 49.588 26.248 50.531 26.846 51.622 27.226 C 51.971 27.35 52.483 27.495 52.576 27.5 C 52.613 27.503 52.624 27.093 52.624 25.58 Z M 56.577 27.288 C 57.786 26.897 58.749 26.308 59.649 25.417 C 60.315 24.753 60.806 24.06 61.192 23.244 C 61.369 22.869 61.679 21.981 61.727 21.713 L 61.754 21.565 L 59.814 21.565 C 57.652 21.565 57.64 21.565 57.132 21.83 C 56.751 22.024 56.236 22.537 56.039 22.917 C 55.772 23.42 55.772 23.432 55.772 25.58 L 55.772 27.507 L 55.92 27.479 C 55.999 27.467 56.298 27.377 56.577 27.288 Z M 54.748 21.744 C 55.32 21.568 55.806 21.068 55.972 20.489 C 56.042 20.24 56.042 19.762 55.972 19.513 C 55.802 18.915 55.29 18.408 54.69 18.239 C 54.437 18.169 53.958 18.169 53.706 18.239 C 53.104 18.408 52.593 18.915 52.423 19.513 C 52.392 19.622 52.368 19.842 52.368 20.002 C 52.368 20.162 52.392 20.384 52.423 20.489 C 52.554 20.935 52.892 21.366 53.296 21.592 C 53.482 21.693 53.6 21.731 53.942 21.815 C 54.072 21.846 54.56 21.802 54.748 21.744 Z M 48.022 18.672 C 48.545 18.595 49.269 18.435 49.733 18.29 C 50.127 18.165 50.445 18.035 51.267 17.665 C 52.703 17.023 53.057 16.934 54.198 16.934 C 55.249 16.934 55.716 17.035 56.751 17.489 C 57.022 17.607 57.458 17.798 57.722 17.912 C 58.851 18.404 60.082 18.693 61.388 18.774 L 61.828 18.802 L 61.806 18.669 C 61.597 17.505 61.069 16.313 60.326 15.34 C 60.015 14.93 59.304 14.222 58.89 13.914 C 57.776 13.078 56.479 12.554 55.102 12.383 C 54.674 12.331 53.721 12.331 53.293 12.383 C 51.916 12.554 50.618 13.078 49.504 13.914 C 49.092 14.222 48.381 14.93 48.069 15.34 C 47.326 16.313 46.799 17.505 46.59 18.669 L 46.567 18.802 L 47.026 18.774 C 47.283 18.759 47.731 18.713 48.022 18.672 Z" style="fill: rgb(255, 255, 255);"/>
  <path d="M 87.321 10.625 L 93.291 10.625 L 87.201 29.375 L 79.641 29.375 L 79.641 22.475 L 79.311 22.475 L 76.821 29.375 L 69.891 29.375 L 69.891 10.625 L 75.861 10.625 L 75.321 21.095 L 75.501 21.095 L 79.401 10.625 L 83.931 10.625 L 83.931 21.095 L 84.111 21.095 L 87.321 10.625 Z M 102.32 29.375 L 103.46 22.745 L 99.17 22.745 L 98.03 29.375 L 92.33 29.375 L 95.63 10.625 L 101.33 10.625 L 100.16 17.255 L 104.45 17.255 L 105.62 10.625 L 111.32 10.625 L 108.02 29.375 L 102.32 29.375 Z M 124.46 22.295 L 118.76 22.295 L 118.37 24.575 L 125.36 24.575 L 124.52 29.375 L 111.83 29.375 L 115.13 10.625 L 127.67 10.625 L 126.11 15.425 L 119.96 15.425 L 119.54 17.945 L 125.24 17.945 L 124.46 22.295 Z M 140.36 22.295 L 134.66 22.295 L 134.27 24.575 L 141.26 24.575 L 140.42 29.375 L 127.73 29.375 L 131.03 10.625 L 143.57 10.625 L 142.01 15.425 L 135.86 15.425 L 135.44 17.945 L 141.14 17.945 L 140.36 22.295 Z M 155.031 29.375 L 143.631 29.375 L 146.931 10.625 L 152.631 10.625 L 150.171 24.575 L 155.871 24.575 L 155.031 29.375 Z" style="fill: rgb(255, 255, 255);"/>
</svg>

<svg xmlns="http://www.w3.org/2000/svg" viewBox="0 0 200 40"><path d="M52.94 29.94a10.05 10.05 0 0 1-8.77-11.03 10.06 10.06 0 0 1 11.12-8.87 10.07 10.07 0 0 1 8.8 11.94 10.05 10.05 0 0 1-11.15 7.96m-.32-4.36c0-2.15 0-2.21-.26-2.7-.2-.38-.68-.86-1.06-1.05-.5-.26-.52-.26-2.7-.26h-1.96l.03.14a7.6 7.6 0 0 0 2.08 3.7 7.6 7.6 0 0 0 3.83 2.09c.03 0 .04-.4.04-1.92m3.96 1.7a7.4 7.4 0 0 0 3.07-1.86 7.5 7.5 0 0 0 2.08-3.7l.02-.15h-1.94c-2.16 0-2.17 0-2.68.26-.38.2-.9.7-1.1 1.09-.26.5-.26.51-.26 2.66v1.93l.15-.03c.08-.01.38-.1.66-.2m-1.83-5.54a1.9 1.9 0 0 0 1.22-1.25 2 2 0 0 0 0-.98 1.9 1.9 0 0 0-1.28-1.27 2 2 0 0 0-.98 0 1.9 1.9 0 0 0-1.29 1.27 2 2 0 0 0 0 .98 1.9 1.9 0 0 0 1.52 1.33c.13.03.62-.02.8-.08m-6.73-3.07a14 14 0 0 0 1.71-.38c.4-.12.72-.25 1.54-.62 1.43-.65 1.79-.74 2.93-.74 1.05 0 1.52.1 2.55.56l.97.42q1.7.75 3.67.86l.44.03-.02-.13a8 8 0 0 0-2.92-4.76 8 8 0 0 0-5.6-1.53 8 8 0 0 0-5.22 2.96 8 8 0 0 0-1.48 3.33l-.02.13.46-.03c.25-.01.7-.06 1-.1m39.3-8.04h5.97L87.2 29.37h-7.56v-6.9h-.33l-2.49 6.9H69.9V10.64h5.97l-.54 10.46h.18l3.9-10.46h4.53V21.1h.18zm15 18.74 1.14-6.62h-4.29l-1.14 6.63h-5.7l3.3-18.75h5.7l-1.17 6.62h4.29l1.17-6.62h5.7l-3.3 18.74zm22.14-7.07h-5.7l-.39 2.27h6.99l-.84 4.8h-12.69l3.3-18.74h12.54l-1.56 4.8h-6.15l-.42 2.52h5.7zm15.9 0h-5.7l-.39 2.27h6.99l-.84 4.8h-12.69l3.3-18.74h12.54l-1.56 4.8h-6.15l-.42 2.52h5.7zm14.67 7.07h-11.4l3.3-18.74h5.7l-2.46 13.94h5.7z" style="fill:#fff"/></svg>
